X: 7
T: The Kid On The Mountain
R: slip jig
M: 9/8
L: 1/8
K: Emin
B: O'Neill's Dance Music of Ireland
P:1
|:"Em"EFE "D"FED "Em"G2F|"Em"EFE "D"cBA "Em"BGE|"Em"EFE "D"FED "G"G2(G/A/)|"G"BAG "D"FAG FED:|
P:2
|:"G"BGB "D"AFA "G"G2 D|"G"GAB "D"dfe dBA|"G"BGB "D"AFA "G"G2 A|"G"BAG "D"FAG FED:|
P:3
|:"Em"gfe efe e2 (e/f/)|"Em"gfg efg "D"afd|"Em"gfe efe e2 (g/a/)|"G"bag "D"fag fed:|
P:4
|:"Em"eBB e2f g2f|"Em"eBB efg "D"afd|"Em"eBB e2f g2(g/a/)|"G"bag "D"fag fed:|
P:5
|:"Em"eBe "D"dBA "Em"G2A|"Em"Bee "D"dBA "Em"BGE|"Em"eBe "D"dBA "Em"G2A|"G"BAG "D"FAG FED:|
P:6
|:"Em"B,EE eBG E2E|"Em"B,EE EFG "D"AFD|"Em"B,EE eBG E2(G/A/)|"G"BAG "D"FAG FED:|


Tune 52	Setting 52

